app/img/product/ic_relevance.svg

<svg width="38" height="28" viewBox="0 0 38 28" fill="none" xmlns="http://www.w3.org/2000/svg">
    <path d="M7.06762 27.8043C7.14251 27.7612 7.20997 27.7123 7.27283 27.6582L12.3137 23.2685C12.8353 22.8138 12.8353 22.0767 12.3137 21.622C12.0516 21.3944 11.7112 21.2808 11.3682 21.2808C11.0251 21.2808 10.6848 21.3944 10.4226 21.622L7.66279 24.0247V1.16437C7.66279 0.521623 7.06357 0 6.3253 0C5.58702 0 4.98781 0.521623 4.98781 1.16437V24.0247L2.28293 21.6698C2.02212 21.4422 1.67964 21.3286 1.33725 21.3286C0.994866 21.3286 0.652507 21.4422 0.391705 21.6698C-0.130568 22.1245 -0.130568 22.8615 0.391705 23.3162L5.379 27.6582C5.44119 27.7123 5.51016 27.7613 5.58372 27.8038C5.61849 27.8236 5.65518 27.8376 5.69129 27.8545C5.73142 27.8743 5.77095 27.8958 5.81375 27.9109C5.85922 27.9272 5.90739 27.9366 5.9542 27.9488C5.99098 27.9581 6.02576 27.9703 6.06388 27.9773C6.15014 27.9919 6.23765 28 6.32592 28C6.32792 28 6.33063 27.9994 6.33063 27.9994C6.4169 27.9994 6.5032 27.9907 6.58746 27.9773C6.62892 27.9691 6.66632 27.9569 6.70644 27.9464C6.75058 27.9342 6.79479 27.9249 6.83759 27.9103C6.88373 27.894 6.92717 27.8713 6.96997 27.8497C7.00207 27.8346 7.03619 27.8212 7.06762 27.8043Z"
          fill="#022AF0"/>
    <path fill-rule="evenodd" clip-rule="evenodd"
          d="M14.5 5C14.5 3.61929 15.6193 2.5 17 2.5H35C36.3807 2.5 37.5 3.61929 37.5 5C37.5 6.38071 36.3807 7.5 35 7.5H17C15.6193 7.5 14.5 6.38071 14.5 5ZM14.5 13C14.5 11.6193 15.6193 10.5 17 10.5H30C31.3807 10.5 32.5 11.6193 32.5 13C32.5 14.3807 31.3807 15.5 30 15.5H17C15.6193 15.5 14.5 14.3807 14.5 13ZM17 18.5C15.6193 18.5 14.5 19.6193 14.5 21C14.5 22.3807 15.6193 23.5 17 23.5H25C26.3807 23.5 27.5 22.3807 27.5 21C27.5 19.6193 26.3807 18.5 25 18.5H17Z"
          fill="#7CEA57"/>
</svg>

<svg width="38" height="28" fill="none" xmlns="http://www.w3.org/2000/svg"><path d="M7.068 27.804a1.33 1.33 0 0 0 .205-.146l5.04-4.39c.522-.454.522-1.191 0-1.646a1.44 1.44 0 0 0-.945-.341 1.44 1.44 0 0 0-.945.341l-2.76 2.403V1.165C7.663.521 7.063 0 6.325 0c-.738 0-1.337.522-1.337 1.164v22.86L2.283 21.67a1.439 1.439 0 0 0-.946-.341c-.342 0-.684.113-.945.34-.523.456-.523 1.192 0 1.647l4.987 4.342c.062.054.131.103.205.146.034.02.071.034.107.05.04.02.08.042.123.057.045.016.093.026.14.038.037.01.072.021.11.028a1.57 1.57 0 0 0 .523 0c.042-.008.08-.02.12-.03.044-.013.088-.022.13-.037.047-.016.09-.039.133-.06.032-.015.066-.029.098-.046Z" fill="#022AF0"/><path fill-rule="evenodd" clip-rule="evenodd" d="M14.5 5A2.5 2.5 0 0 1 17 2.5h18a2.5 2.5 0 0 1 0 5H17A2.5 2.5 0 0 1 14.5 5Zm0 8a2.5 2.5 0 0 1 2.5-2.5h13a2.5 2.5 0 0 1 0 5H17a2.5 2.5 0 0 1-2.5-2.5Zm2.5 5.5a2.5 2.5 0 0 0 0 5h8a2.5 2.5 0 0 0 0-5h-8Z" fill="#7CEA57"/></svg>
